site/assets/svgs/solid/vials.svg

<svg xmlns="http://www.w3.org/2000/svg" viewBox="0 0 512 512"><!--! Font Awesome Free 6.6.0 by @fontawesome - https://fontawesome.com License - https://fontawesome.com/license/free (Icons: CC BY 4.0, Fonts: SIL OFL 1.1, Code: MIT License) Copyright 2024 Fonticons, Inc. --><path d="M0 64C0 46.3 14.3 32 32 32l56 0 48 0 56 0c17.7 0 32 14.3 32 32s-14.3 32-32 32l0 304c0 44.2-35.8 80-80 80s-80-35.8-80-80L32 96C14.3 96 0 81.7 0 64zM136 96L88 96l0 160 48 0 0-160zM288 64c0-17.7 14.3-32 32-32l56 0 48 0 56 0c17.7 0 32 14.3 32 32s-14.3 32-32 32l0 304c0 44.2-35.8 80-80 80s-80-35.8-80-80l0-304c-17.7 0-32-14.3-32-32zM424 96l-48 0 0 160 48 0 0-160z"/></svg>

<svg xmlns="http://www.w3.org/2000/svg" viewBox="0 0 512 512"><!--! Font Awesome Free 6.2.1 by @fontawesome - https://fontawesome.com License - https://fontawesome.com/license/free (Icons: CC BY 4.0, Fonts: SIL OFL 1.1, Code: MIT License) Copyright 2022 Fonticons, Inc. --><path d="M0 64C0 46.3 14.3 32 32 32H88h48 56c17.7 0 32 14.3 32 32s-14.3 32-32 32V400c0 44.2-35.8 80-80 80s-80-35.8-80-80V96C14.3 96 0 81.7 0 64zM136 96H88V256h48V96zM288 64c0-17.7 14.3-32 32-32h56 48 56c17.7 0 32 14.3 32 32s-14.3 32-32 32V400c0 44.2-35.8 80-80 80s-80-35.8-80-80V96c-17.7 0-32-14.3-32-32zM424 96H376V256h48V96z"/></svg>
